public/assets/Layer_1.svg

<svg width="25" height="28" viewBox="0 0 25 28" fill="none" xmlns="http://www.w3.org/2000/svg">
<g id="Layer_1" clip-path="url(#clip0_1_302)">
<path id="Vector" d="M12.4272 0.00513314C15.1189 0.00513314 17.8107 0.00128147 20.502 0.00657751C21.9844 0.00946626 23.1145 0.834204 23.8635 2.49283C24.1921 3.22031 24.335 4.02001 24.3346 4.86545C24.3327 9.19088 24.3357 13.5163 24.3331 17.8417C24.3312 20.5008 22.7606 22.6212 20.7052 22.6871C19.3414 22.7309 17.9766 22.702 16.6121 22.6958C16.1675 22.6939 15.8456 22.275 15.846 21.7353C15.846 21.1854 16.1719 20.7757 16.6304 20.7738C17.9327 20.7685 19.235 20.7738 20.5377 20.7704C21.4226 20.768 22.1031 20.2851 22.5549 19.2943C22.7606 18.8422 22.8458 18.3448 22.8455 17.8201C22.844 16.3593 22.8451 14.899 22.8451 13.4383C22.8451 10.5895 22.847 7.74072 22.8443 4.89193C22.8429 3.44515 22.1403 2.30506 21.0602 1.99933C20.8745 1.94685 20.6784 1.93626 20.4871 1.93578C15.11 1.93241 9.73285 1.93193 4.35571 1.93434C3.2145 1.93434 2.3531 2.75907 2.08072 4.11775C2.02863 4.37822 2.00965 4.6565 2.00928 4.9266C2.00482 9.21206 2.00519 13.497 2.00668 17.7825C2.00742 19.5119 2.9637 20.7603 4.3025 20.769C5.69153 20.7781 7.08093 20.7695 8.47033 20.7724C8.92801 20.7733 9.23945 21.1147 9.28187 21.6481C9.32094 22.1383 9.05564 22.5937 8.67945 22.676C8.60057 22.6934 8.51908 22.6982 8.4387 22.6982C7.05563 22.6996 5.67255 22.7054 4.28948 22.6977C2.43979 22.6876 0.961091 21.1291 0.587507 18.7921C0.535414 18.4652 0.520158 18.1234 0.519786 17.7883C0.514949 13.511 0.537275 9.23324 0.508623 4.95645C0.491135 2.29158 2.11942 -0.0184583 4.33338 -0.000162903C7.03107 0.0224656 9.72913 0.00513314 12.4268 0.00513314H12.4272Z" fill="#4D4848"/>
<path id="Vector_2" d="M11.6391 12.1443C11.4727 12.3903 11.3057 12.6354 11.1397 12.8819C10.5537 13.7538 9.96983 14.6282 9.38155 15.4972C9.1062 15.904 8.71588 15.9974 8.39662 15.7466C7.99513 15.4312 7.91662 14.7485 8.23625 14.2675C8.82267 13.3855 9.41504 12.5102 10.0052 11.6325C10.6076 10.7365 11.2093 9.83957 11.8128 8.94502C12.1816 8.39857 12.6724 8.39953 13.0422 8.94935C14.2232 10.7043 15.4013 12.4621 16.5842 14.2151C16.7888 14.5184 16.8718 14.8525 16.7732 15.2372C16.5931 15.9401 15.9021 16.1154 15.5092 15.5497C15.0285 14.8573 14.5633 14.1472 14.0912 13.4452C13.7991 13.0109 13.5062 12.5771 13.1702 12.1549C13.1702 12.2454 13.1702 12.3359 13.1702 12.4264C13.1702 17.2256 13.1702 22.0248 13.1702 26.824C13.1702 27.4089 12.9001 27.8225 12.4919 27.8716C12.0778 27.9212 11.7064 27.5086 11.6833 26.9713C11.6792 26.8755 11.6815 26.7787 11.6815 26.6824C11.6815 21.9314 11.6815 17.1804 11.6815 12.4293V12.1684C11.6677 12.1602 11.6536 12.1525 11.6398 12.1443H11.6391Z" fill="#4D4848"/>
</g>
<defs>
<clipPath id="clip0_1_302">
<rect width="23.826" height="27.8755" fill="white" transform="translate(0.508972 7.62939e-06)"/>
</clipPath>
</defs>
</svg>

<svg width="25" height="28" fill="none" xmlns="http://www.w3.org/2000/svg"><g clip-path="url(#a)" fill="#4D4848"><path d="M12.427.005c2.692 0 5.384-.004 8.075.002 1.482.002 2.613.827 3.361 2.486.33.727.472 1.527.472 2.372-.002 4.326 0 8.651-.002 12.977-.002 2.659-1.572 4.78-3.628 4.845-1.364.044-2.728.015-4.093.009-.444-.002-.766-.421-.766-.96 0-.55.326-.96.784-.962 1.303-.006 2.605 0 3.908-.004.885-.002 1.565-.485 2.017-1.476.206-.452.29-.95.29-1.474v-4.382c0-2.849.002-5.697 0-8.546-.002-1.447-.705-2.587-1.785-2.893a2.129 2.129 0 0 0-.573-.063c-5.377-.004-10.754-.004-16.131-.002-1.141 0-2.003.825-2.275 2.184-.052.26-.071.538-.072.809-.004 4.285-.004 8.57-.002 12.855 0 1.73.957 2.978 2.296 2.987 1.389.01 2.778 0 4.167.003.458.001.77.343.812.876.039.49-.226.946-.603 1.028-.078.017-.16.022-.24.022-1.383.002-2.766.007-4.15 0-1.85-.01-3.328-1.569-3.701-3.906a6.479 6.479 0 0 1-.068-1.004C.515 13.511.537 9.233.509 4.956.49 2.292 2.119-.018 4.333 0c2.698.022 5.396.005 8.094.005Z"/><path d="M11.64 12.144c-.167.246-.334.491-.5.738-.586.872-1.17 1.746-1.758 2.615-.276.407-.666.5-.985.25-.402-.316-.48-.998-.16-1.48.586-.881 1.178-1.757 1.768-2.634.603-.896 1.204-1.793 1.808-2.688.369-.546.86-.545 1.23.004 1.18 1.755 2.358 3.513 3.541 5.266.205.303.288.637.19 1.022-.18.703-.872.878-1.265.313-.48-.693-.946-1.403-1.418-2.105a19.597 19.597 0 0 0-.92-1.29v14.669c0 .585-.27.998-.68 1.048-.413.05-.785-.363-.808-.9-.004-.097-.002-.193-.002-.29V12.17l-.041-.025Z"/></g><defs><clipPath id="a"><path fill="#fff" transform="translate(.509)" d="M0 0h23.826v27.875H0z"/></clipPath></defs></svg>
